face-man.svg

<svg fill="currentColor" viewBox="0 0 24 24"><path d="M9 11.75A1.25 1.25 0 0 0 7.75 13 1.25 1.25 0 0 0 9 14.25 1.25 1.25 0 0 0 10.25 13 1.25 1.25 0 0 0 9 11.75m6 0A1.25 1.25 0 0 0 13.75 13 1.25 1.25 0 0 0 15 14.25 1.25 1.25 0 0 0 16.25 13 1.25 1.25 0 0 0 15 11.75M12 2A10 10 0 0 0 2 12a10 10 0 0 0 10 10 10 10 0 0 0 10-10A10 10 0 0 0 12 2m0 18c-4.41 0-8-3.59-8-8 0-.29 0-.58.05-.86 2.36-1.05 4.23-2.98 5.21-5.37a9.97 9.97 0 0 0 10.41 3.97c.21.71.33 1.47.33 2.26 0 4.41-3.59 8-8 8"/></svg>

<svg  viewBox="0 0 24 24" fill="currentColor"><path  d="M9,11.75A1.25,1.25 0 0,0 7.75,13A1.25,1.25 0 0,0 9,14.25A1.25,1.25 0 0,0 10.25,13A1.25,1.25 0 0,0 9,11.75M15,11.75A1.25,1.25 0 0,0 13.75,13A1.25,1.25 0 0,0 15,14.25A1.25,1.25 0 0,0 16.25,13A1.25,1.25 0 0,0 15,11.75M12,2A10,10 0 0,0 2,12A10,10 0 0,0 12,22A10,10 0 0,0 22,12A10,10 0 0,0 12,2M12,20C7.59,20 4,16.41 4,12C4,11.71 4,11.42 4.05,11.14C6.41,10.09 8.28,8.16 9.26,5.77C11.07,8.33 14.05,10 17.42,10C18.2,10 18.95,9.91 19.67,9.74C19.88,10.45 20,11.21 20,12C20,16.41 16.41,20 12,20Z"/></svg>
